X: 358
T: Partita Dis - Andante
C: Kreith
L: 1/4
M: C|
N: Derived from pl-cz--iii-366--003_kreith--partita-dis-andante.krn
V: 1 clef=treble
V: 2 clef=treble
V: 3 clef=bass
V: 4 clef=treble
V: 5 clef=treble
K: Eb
[V:1] Beeg | 
[V:2] G2GB | 
[V:3] E,2z2 | 
[V:4] x4 | 
[V:5] E,2z2 | 
[V:1] ad2e | 
[V:2] cA2G | 
[V:3] zB,,2E, | 
[V:4] x4 | 
[V:5] zB,2E | 
[V:1] (3e/g/f/ (3e/d/c/Bz/ c/ | 
[V:2] z2zz/ A/ | 
[V:3] z4 | 
[V:4] x4 | 
[V:5] z4 | 
[V:1] F>AGz | 
[V:2] D>FEz | 
[V:3] zB,,E,,z | 
[V:4] x4 | 
[V:5] zB,E,z | 
[V:1] Beeg | 
[V:2] G2GB | 
[V:3] zE,2z | 
[V:4] x4 | 
[V:5] E,2z2 | 
[V:1] ad2e | 
[V:2] cA2G | 
[V:3] zB,,2E, | 
[V:4] x4 | 
[V:5] zB,2E | 
[V:1] e/d/ z/ B/ c/A/F/D/ | 
[V:2] Gz/ G/EF,/A,/ | 
[V:3] E,F,G,B, | 
[V:4] x4 | 
[V:5] z2zB, | 
[V:1] D2Ez :|]|:  
[V:2] A,2G,z :|]|:  
[V:3] B,2E,z :|]|:  
[V:4] x4 :|]|:  
[V:5] B,2G,z :|]|:  
[V:1] g2gg | 
[V:2] e2ee | 
[V:3] E,,E,G,=A, | 
[V:4] x4 | 
[V:5] E,2E,E, | 
[V:1] (3g/b/=a/ (3b/a/g/fz | 
[V:2] (3d/g/f/ (3g/f/e/dz | 
[V:3] B,2z2 | 
[V:4] x4 | 
[V:5] B,,2z2 | 
[V:1] e2ee | 
[V:2] c2cc | 
[V:3] zC=A,F, | 
[V:4] x4 | 
[V:5] z8 | 
[V:1] dd3//d/8e/8fz | 
[V:2] Bc3//B/8c/8dz | 
[V:3] B,2B,,z | 
[V:4] x4 | 
[V:5]  | 
[V:1] g2gg | 
[V:2] e2ee | 
[V:3] E,,E,G,=A, | 
[V:4] x4 | 
[V:5] E,2E,E, | 
[V:1] (3g/b/=a/ (3b/a/g/ (3f/b/a/ (3g/f/e/ | 
[V:2] (3d/g/f/ (3g/f/e/ (3d/g/f/ (3e/d/c/ | 
[V:3] B,2z2 | 
[V:4] x4 | 
[V:5] B,,2z2 | 
[V:1] (3d/g/f/ (3e/d/c/B=A | 
[V:2] (3B/e/d/ (3c/B/E/DC | 
[V:3] B,E,F,F,, | 
[V:4] x4 | 
[V:5] z2zE | 
[V:1] =A2Bz | 
[V:2] C2Dz | 
[V:3] F,,2B,,z | 
[V:4] x4 | 
[V:5] F2B,z | 
[V:1] Beeg | 
[V:2] G2GB | 
[V:3] E,2z2 | 
[V:4] x4 | 
[V:5] E,2z2 | 
[V:1] ad2e | 
[V:2] cA2F | 
[V:3] zB,,2E, | 
[V:4] x4 | 
[V:5] zB,2E | 
[V:1] e/B/ z/ B/ c/A/F/D/ | 
[V:2] Gz/ G/EF,/A,/ | 
[V:3] E,G,=A,B, | 
[V:4] x4 | 
[V:5] DzB,z | 
[V:1] EEEx :|]  
[V:2] A,2G,z :|]  
[V:3] B,B,,E,z :|]  
[V:4] x4 :|]  
[V:5] B,2G,A, :|]  

